SVG_Azure_Grouped/Application/FHIR Service.svg

<?xml version="1.0" encoding="UTF-8" standalone="no"?>
<!-- Generated by Microsoft Visio, SVG Export FHIR Service.svg Page-1 -->

<svg
   xmlns:dc="http://purl.org/dc/elements/1.1/"
   xmlns:cc="http://creativecommons.org/ns#"
   xmlns:rdf="http://www.w3.org/1999/02/22-rdf-syntax-ns#"
   xmlns:svg="http://www.w3.org/2000/svg"
   xmlns="http://www.w3.org/2000/svg"
   xmlns:sodipodi="http://sodipodi.sourceforge.net/DTD/sodipodi-0.dtd"
   xmlns:inkscape="http://www.inkscape.org/namespaces/inkscape"
   width="0.78735781in"
   height="0.7087276in"
   viewBox="0 0 56.68967 51.028611"
   xml:space="preserve"
   class="st5"
   version="1.1"
   id="svg51"
   sodipodi:docname="FHIR Service.svg"
   style="font-size:12px;overflow:visible;color-interpolation-filters:sRGB;fill:none;fill-rule:evenodd;stroke-linecap:square;stroke-miterlimit:3"
   inkscape:version="0.92.5 (2060ec1f9f, 2020-04-08)"><metadata
   id="metadata55"><rdf:RDF><cc:Work
       rdf:about=""><dc:format>image/svg+xml</dc:format><dc:type
         rdf:resource="http://purl.org/dc/dcmitype/StillImage" /></cc:Work></rdf:RDF></metadata><sodipodi:namedview
   pagecolor="#ffffff"
   bordercolor="#666666"
   borderopacity="1"
   objecttolerance="10"
   gridtolerance="10"
   guidetolerance="10"
   inkscape:pageopacity="0"
   inkscape:pageshadow="2"
   inkscape:window-width="640"
   inkscape:window-height="480"
   id="namedview53"
   showgrid="false"
   inkscape:zoom="1.4868892"
   inkscape:cx="37.795177"
   inkscape:cy="34.00492"
   inkscape:window-x="0"
   inkscape:window-y="0"
   inkscape:window-maximized="0"
   inkscape:current-layer="svg51" />
	<style
   type="text/css"
   id="style2">
	<![CDATA[
		.st1 {fill:#a3a3a3;stroke:none;stroke-linecap:butt;stroke-width:34}
		.st2 {fill:url(#grad0-8);stroke:none;stroke-linecap:butt;stroke-width:34}
		.st3 {fill:url(#grad0-12);stroke:none;stroke-linecap:butt;stroke-width:34}
		.st4 {fill:#ffffff;fill-opacity:0.9;stroke:none;stroke-linecap:butt;stroke-width:34}
		.st5 {fill:none;fill-rule:evenodd;font-size:12px;overflow:visible;stroke-linecap:square;stroke-miterlimit:3}
	]]>
	</style>

	<defs
   id="Patterns_And_Gradients">
		<linearGradient
   id="grad0-8"
   x1="-4.2295458e-06"
   y1="92.318129"
   x2="48.069579"
   y2="92.318129"
   gradientTransform="scale(1.1793323,0.84793746)"
   gradientUnits="userSpaceOnUse">
			<stop
   offset="0"
   stop-color="#0078d4"
   stop-opacity="1"
   id="stop4" />
			<stop
   offset="0.155"
   stop-color="#1380da"
   stop-opacity="1"
   id="stop6" />
			<stop
   offset="0.53"
   stop-color="#3c91e5"
   stop-opacity="1"
   id="stop8" />
			<stop
   offset="0.82"
   stop-color="#559cec"
   stop-opacity="1"
   id="stop10" />
			<stop
   offset="1"
   stop-color="#5ea0ef"
   stop-opacity="1"
   id="stop12" />
		</linearGradient>
		<linearGradient
   id="grad0-12"
   x1="0.10150744"
   y1="91.964884"
   x2="28.708597"
   y2="91.964884"
   gradientTransform="scale(1.0128694,0.98729412)"
   gradientUnits="userSpaceOnUse">
			<stop
   offset="0"
   stop-color="#ef7100"
   stop-opacity="1"
   id="stop15" />
			<stop
   offset="1"
   stop-color="#faa21d"
   stop-opacity="1"
   id="stop17" />
		</linearGradient>
	</defs>
	<g
   id="g49"
   transform="translate(-34.000366,-33.995693)">
		<title
   id="title21">Page-1</title>
		<g
   id="group13992-1"
   transform="translate(34,-34.0157)">
			<title
   id="title23">FHIR Service.13992</title>
			<g
   id="group13993-2">
				<title
   id="title25">Sheet.13993</title>
				<g
   id="shape13994-3"
   transform="translate(14.9039,-40.4272)">
					<title
   id="title27">Sheet.13994</title>
					<path
   d="M 27.23,119.04 H 24.4 v -7.67 a 0.384252,0.395582 -180 0 0 -0.08504,0 H 2.92 a 0.384252,0.395582 -180 0 0 -0.085039,0 L 2.83,119.04 H 0 v -7.81 a 2.83465,2.91823 0 0 1 2.92,-2.79 h 21.39 a 2.83465,2.91823 0 0 1 2.92,2.79 z"
   class="st1"
   id="path29"
   inkscape:connector-curvature="0"
   style="fill:#a3a3a3;stroke:none;stroke-width:34;stroke-linecap:butt" />
				</g>
				<g
   id="shape13995-5">
					<title
   id="title32">Sheet.13995</title>
					<path
   d="m 0,117.1 a 1.88981,1.94553 -180 0 0 1.89,1.94 H 54.8 a 1.88981,1.94553 -180 0 0 1.89,-1.94 V 80.23 A 1.88981,1.94553 -180 0 0 54.8,78.28 H 1.89 A 1.88981,1.94553 -180 0 0 0,80.23 Z"
   class="st2"
   id="path34"
   inkscape:connector-curvature="0"
   style="fill:url(#grad0-8);stroke:none;stroke-width:34;stroke-linecap:butt" />
				</g>
				<g
   id="shape13996-9"
   transform="translate(13.7575,-6.25798)">
					<title
   id="title37">Sheet.13996</title>
					<path
   d="m 22.02,90.82 a 7.26614,7.4804 -180 0 0 -7.45,5.03 7.29764,7.51282 -180 0 0 -7.5,-4.98 C 0.33,91.44 0,98.3 0.12,100.93 c 0.06,1.87 0.43,7.78 14.38,18.02 l 0.12,0.09 0.12,-0.09 c 13.94,-10.33 14.28,-16.35 14.33,-18.3 0.08,-2.55 -0.31,-9.29 -7.05,-9.83 z"
   class="st3"
   id="path39"
   inkscape:connector-curvature="0"
   style="fill:url(#grad0-12);stroke:none;stroke-width:34;stroke-linecap:butt" />
				</g>
				<g
   id="shape13997-13"
   transform="translate(15.9087,-11.4835)">
					<title
   id="title42">Sheet.13997</title>
					<path
   d="m 26.56,102 a 10.8567,11.1768 0 0 1 -1.02,6.1 16.9417,17.4413 0 0 1 -9.97,7.82 2.29291,2.36052 -180 0 0 -1.67,-0.85 2.33701,2.40592 -180 1 0 2.18,2.59 23.3449,24.0332 -180 0 0 8.96,-5.92 10.4756,10.7845 -180 0 0 1.86,-5.84 13.0425,13.4271 -180 0 0 -0.34,-3.9 z m -20.08,14.27 0.59,0.7 a 0.900787,0.927348 -180 0 0 1.25984,0.0746 L 9.68,115.81 a 0.903937,0.930591 -180 0 0 0.072441,-1.29699 0.885039,0.911136 -180 0 0 -1.2378,-0.20428 0.944882,0.972743 -180 0 0 -0.085039,0.0746 L 7.72,115.03 c -4.42,-5.01 -5.68,-8.87 -3.64,-10.71 2.03,-1.85 5.59,-0.11 9.97,4.91 l -0.7,0.65 a 0.888189,0.914379 -180 0 0 -0.07874,1.29699 0.869291,0.894924 -180 0 0 1.22205,0.107 l 0.03669,-0.034 1.33,-1.22 A 0.903937,0.930591 -180 0 0 15.93244,108.733 L 15.34,108.06 c -2.97,-3.44 -8.11,-7.7 -11.65,-5.57 a 5.53071,5.69379 0 0 1 -1.51,-3.6 3.91181,4.02716 0 0 1 0.63,-2.36 6.0189,6.19637 -180 0 0 -2.32,1.42 6.0378,6.21583 -180 0 0 1.91,5.77 c -2.4,3.38 1.11,9.11 4.08,12.55 z"
   class="st4"
   id="path44"
   inkscape:connector-curvature="0"
   style="fill:#ffffff;fill-opacity:0.9;stroke:none;stroke-width:34;stroke-linecap:butt" />
				</g>
			</g>
		</g>
	</g>
</svg>

<?xml version="1.0" encoding="UTF-8" standalone="no"?>
<!DOCTYPE svg PUBLIC "-//W3C//DTD SVG 1.1//EN" "http://www.w3.org/Graphics/SVG/1.1/DTD/svg11.dtd">
<!-- Generated by Microsoft Visio, SVG Export FHIR Service.svg Page-1 -->
<svg xmlns="http://www.w3.org/2000/svg" xmlns:xlink="http://www.w3.org/1999/xlink" xmlns:ev="http://www.w3.org/2001/xml-events"
		width="1.73185in" height="1.65334in" viewBox="0 0 124.693 119.041" xml:space="preserve" color-interpolation-filters="sRGB"
		class="st5">
	<style type="text/css">
	<![CDATA[
		.st1 {fill:#a3a3a3;stroke:none;stroke-linecap:butt;stroke-width:34}
		.st2 {fill:url(#grad0-8);stroke:none;stroke-linecap:butt;stroke-width:34}
		.st3 {fill:url(#grad0-12);stroke:none;stroke-linecap:butt;stroke-width:34}
		.st4 {fill:#ffffff;fill-opacity:0.9;stroke:none;stroke-linecap:butt;stroke-width:34}
		.st5 {fill:none;fill-rule:evenodd;font-size:12px;overflow:visible;stroke-linecap:square;stroke-miterlimit:3}
	]]>
	</style>

	<defs id="Patterns_And_Gradients">
		<linearGradient id="grad0-8" x1="0" y1="0" x2="1" y2="0" gradientTransform="rotate(-90 0.5 0.5)">
			<stop offset="0" stop-color="#0078d4" stop-opacity="1"/>
			<stop offset="0.155" stop-color="#1380da" stop-opacity="1"/>
			<stop offset="0.53" stop-color="#3c91e5" stop-opacity="1"/>
			<stop offset="0.82" stop-color="#559cec" stop-opacity="1"/>
			<stop offset="1" stop-color="#5ea0ef" stop-opacity="1"/>
		</linearGradient>
		<linearGradient id="grad0-12" x1="0" y1="0" x2="1" y2="0" gradientTransform="rotate(-90 0.5 0.5)">
			<stop offset="0" stop-color="#ef7100" stop-opacity="1"/>
			<stop offset="1" stop-color="#faa21d" stop-opacity="1"/>
		</linearGradient>
	</defs>
	<g>
		<title>Page-1</title>
		<g id="group13645-1" transform="translate(34,-34.0157)">
			<title>FHIR Service.13645</title>
			<g id="group13646-2">
				<title>Sheet.13646</title>
				<g id="shape13647-3" transform="translate(14.9039,-40.4272)">
					<title>Sheet.13647</title>
					<path d="M27.23 119.04 L24.4 119.04 L24.4 111.37 a0.384252 0.395582 -180 0 0 -0.0850394 -2.84217E-14 L2.92 111.37
								 a0.384252 0.395582 -180 0 0 -0.0850394 0 L2.83 119.04 L0 119.04 L0 111.23 A2.83465 2.91823 0 0 1
								 2.92 108.44 L24.31 108.44 A2.83465 2.91823 0 0 1 27.23 111.23 L27.23 119.04 Z" class="st1"/>
				</g>
				<g id="shape13648-5">
					<title>Sheet.13648</title>
					<path d="M0 117.1 A1.88981 1.94553 -180 0 0 1.89 119.04 L54.8 119.04 A1.88981 1.94553 -180 0 0 56.69 117.1 L56.69
								 80.23 A1.88981 1.94553 -180 0 0 54.8 78.28 L1.89 78.28 A1.88981 1.94553 -180 0 0 0 80.23 L0 117.1
								 Z" class="st2"/>
				</g>
				<g id="shape13649-9" transform="translate(13.7575,-6.25798)">
					<title>Sheet.13649</title>
					<path d="M22.02 90.82 A7.26614 7.4804 -180 0 0 14.57 95.85 A7.29764 7.51282 -180 0 0 7.07 90.87 C0.33 91.44 0
								 98.3 0.12 100.93 C0.18 102.8 0.55 108.71 14.5 118.95 L14.62 119.04 L14.74 118.95 C28.68 108.62 29.02
								 102.6 29.07 100.65 C29.15 98.1 28.76 91.36 22.02 90.82 Z" class="st3"/>
				</g>
				<g id="shape13650-13" transform="translate(15.9087,-11.4835)">
					<title>Sheet.13650</title>
					<path d="M26.56 102 A10.8567 11.1768 0 0 1 25.54 108.1 A16.9417 17.4413 0 0 1 15.57 115.92 A2.29291 2.36052 -180
								 0 0 13.9 115.07 A2.33701 2.40592 -180 1 0 16.08 117.66 A23.3449 24.0332 -180 0 0 25.04 111.74 A10.4756
								 10.7845 -180 0 0 26.9 105.9 A13.0425 13.4271 -180 0 0 26.56 102 ZM6.48 116.27 L7.07 116.97 a0.900787
								 0.927348 -180 0 0 1.25984 0.074577 L9.68 115.81 a0.903937 0.930591 -180 0 0 0.0724409 -1.29699 a0.885039
								 0.911136 -180 0 0 -1.2378 -0.204276 a0.944882 0.972743 -180 0 0 -0.0850394 0.074577 L7.72 115.03
								 C3.3 110.02 2.04 106.16 4.08 104.32 C6.11 102.47 9.67 104.21 14.05 109.23 L13.35 109.88 a0.888189
								 0.914379 -180 0 0 -0.0787402 1.29699 a0.869291 0.894924 -180 0 0 1.22205 0.107002 L14.53 111.25
								 L15.86 110.03 a0.903937 0.930591 -180 0 0 0.0724409 -1.29699 L15.34 108.06 C12.37 104.62 7.23 100.36
								 3.69 102.49 A5.53071 5.69379 0 0 1 2.18 98.89 A3.91181 4.02716 0 0 1 2.81 96.53 A6.0189 6.19637
								 -180 0 0 0.49 97.95 A6.0378 6.21583 -180 0 0 2.4 103.72 C0 107.1 3.51 112.83 6.48 116.27 Z"
							class="st4"/>
				</g>
			</g>
		</g>
	</g>
</svg>
